!!!!SEGMENT: pl-kc--40102-iii-1-saf--001-003_zielenski-mikolaj--offertoria-totius-anni-ad-tertiam-missa-nativitatis-domini-tui-sunt-caeli.krn
!!!cenid: 16xx:1482
!!!COM: Zieleński, Mikołaj
!!!COM-rismid: pe30013481
!!!CDT:
!!!CNT: Polish
!!!GTL: Offertoria totius anni
!!!OTL: Ad tertiam Missa Nativitatis Domini/Tui sunt caeli
!!!OMV: 003
!!!PDT: 1611
!!!AGN:
!!!SMS-siglum: PL-Kc
!!!SMS-shelfmark: 40102 III/1 Saf.
!!!SMS-shelfwork: 001-003 G
!!!SMS-variant:
!!!SMS-altvar:
!!!NIFC-rismid: 990069886
!!!URL-scan: https://cyfrowe.mnk.pl/dlibra/publication/24235/edition/23926/content?ref=desc
!!!ONB-nifc: UWAGA: str. 6-7. Uwaga: W xml metrum 2/1 do źródłowego C| i odpowiednio 3/1 do 3/2
!!!key: g:dor
**kern	**kern	**kern	**kern
*part4	*part3	*part2	*part1
*staff4	*staff3	*staff2	*staff1
*group1	*group1	*group1	*group1
*I""Organo	*I""Organo	*I""Organo	*I""Organo
*I''org	*I''org	*I''org	*I''org
*Iorg	*Iorg	*Iorg	*Iorg
*ICklav	*ICklav	*ICklav	*ICklav
*clefF4	*clefC3	*clefC4	*clefG2
*k[b-]	*k[b-]	*k[b-]	*k[b-]
*g:	*g:	*g:	*g:
*M2/1	*M2/1	*M2/1	*M2/1
*met(C|)	*met(C|)	*met(C|)	*met(C|)
=1	=1	=1	=1
!	!LO:TX:a:t=Secundus Chorus.	!LO:TX:a:t=Tui ſunt caeli.	!LO:TX:a:t=Ad tertiam Miſsā Natiuitatis Domini. A S.
00r	00r	1G	1.dd
.	.	1.B-	.
.	.	.	1dd\
=2-	=2-	=2-	=2-
.	.	.	.
.	.	2F/	2cc\
.	.	4G/	1b-
.	.	4A/	.
.	.	4B-\	.
.	.	4c\	.
=3	=3	=3	=3
00r	00r	2d\	2a/
.	.	2D/	2dd\
.	.	2A/	2cc#X\
.	.	2F#X/	2dd\
=4-	=4-	=4-	=4-
.	.	2G/	2.b-/
.	.	2E-X/	.
.	.	.	2ccny\
.	.	1Fny	.
.	.	.	2b-/
.	.	.	4a/
=5	=5	=5	=5
1r	1r	0BB-	0b-
1GG	1.d	.	.
=6-	=6-	=6-	=6-
1.D	.	0r	0r
.	1d	.	.
2GG/	2d\	.	.
=7	=7	=7	=7
1C	1e-X	00r	00r
2.D/	2d\	.	.
.	2a\	.	.
4F#X\	.	.	.
=8-	=8-	=8-	=8-
2.G\	2.d\	.	.
2E\	2g\	.	.
4D/	4f\	.	.
2A\	2eny\	.	.
=9	=9	=9	=9
2D/	2d\	0r	0r
2.D/	2.f#X\	.	.
!LO:N:acc=#	!	!	!
4.BBn/	4.g\	.	.
8BB/	8g\	.	.
4C/	2a\	.	.
=10-	=10-	=10-	=10-
1D	.	1r	1r
.	2g\	.	.
.	4f#X\	.	.
[y1GG	2g\	1G	2r
.	2g\	.	[<2dd\
=11	=11	=11	=11
!LO:N:xstem:cue:vis=4	!	!	!
2GG]	2g\	1.D	2dd]
2GG/	2d\	.	2dd\
2DD/	4d\	.	1ff
.	4e\	.	.
2DD/	4f\	2D/	.
.	4g\	.	.
=12-	=12-	=12-	=12-
2.AA/	2a\	1E	1ee
.	2a\	.	.
4BB-/	.	.	.
2C/	2.e\	2E/	2ee\
2C/	.	2C/	[<2gg\
.	4f\	.	.
=13	=13	=13	=13
1GG	2g\	1D	2gg]
.	2g\	.	2.dd\
2GG/	1d	2D/	.
.	.	.	4dd\
2DD/	.	2D/	2ff\
=14-	=14-	=14-	=14-
1AA	1A	1E	1ee
1DD	1a	2.F/	2dd\
.	.	.	[y2ff\
.	.	4D/	.
=15	=15	=15	=15
!	!	!	!LO:N:xstem:cue
0r	0r	4A/	4ff]
.	.	2c\	4.ee\
.	.	.	8ee\
.	.	4G/	4dd\
.	.	1d	1dd
=16-	=16-	=16-	=16-
1r	1r	2G/	2dd\
.	.	2G/	2dd\
1GG	1d	2G/	2dd\
.	.	2G/	2dd\
=17	=17	=17	=17
2GG/	2d\	1G	1gg
2GG/	2d\	.	.
1CC	1e	1A	1ee
=18-	=18-	=18-	=18-
1FF	1f	2r	2r
.	.	2F/	2ff\
2r	2r	2D/	2ff\
2DD/	2f\	2D/	2ff\
*custos:DD	*custos:d	*custos:A	*custos:ff
!!LO:PB:g=original
=19	=19	=19	=19
2DD/	2d\	1A	1ff
2DD/	2d\	.	.
1AA	1e	1E	1ee
=20-	=20-	=20-	=20-
1C	1e	2r	2r
.	.	2C/	2gg\
2r	2r	2C/	2gg\
2CC/	2g\	2C/	2gg\
=21	=21	=21	=21
2CC/	2g\	1.C	2.ee\
2CC/	2g\	.	.
.	.	.	4ee\
2.FF/	2.f\	.	2ff\
.	.	2C/	4cc\
4FF/	4f\	.	4dd\
=22-	=22-	=22-	=22-
1CC	1e	1C	4ee\
.	.	.	4ff\
.	.	.	2.gg\
1GG	1d	1D	.
.	.	.	4ff\
.	.	.	2dd\
=23	=23	=23	=23
1CC	1g	2C/	2ee\
.	.	2.c\	2.ee\
1r	1r	.	.
.	.	4A/	4ff\
.	.	2B-X\	2dd\
=24-	=24-	=24-	=24-
2r	2r	1A	1cc#X
2.AA/	2.a\	.	.
.	.	1r	1r
4C#X/	4e\	.	.
2D/	2f\	.	.
=25	=25	=25	=25
1AA	1e	2r	2r
.	.	2.A/	2.ee\
1r	1r	.	.
.	.	4c#X\	4ee\
.	.	2d\	2dd\
=26-	=26-	=26-	=26-
2r	2r	1A	1cc#X
2.AA/	2.a\	.	.
.	.	1r	1r
4C#X/	4e\	.	.
2D/	2f\	.	.
=27	=27	=27	=27
2.AA/	2.e\	2r	2r
.	.	2A/	2ee\
4AA/	4e\	.	.
2AA/	2e\	2A/	2ee\
2AA/	2c/	2A/	2ee\
=28-	=28-	=28-	=28-
2.FF/	2.c/	2.A/	2.ff\
4FF/	4c/	4F/	4ff\
1C	2c/	2G/	2ee\
.	2c/	2C/	[<2gg\
=29	=29	=29	=29
1GG	1g	1.D	2gg]
.	.	.	1dd
2D/	2.d\	.	.
1D\	.	2D/	2.ff\
.	4e\	.	.
=30-	=30-	=30-	=30-
.	2f\	1D	.
.	.	.	4ee\
2GG/	2B-/	.	2dd\
1DD	1d	1D	1dd
=31	=31	=31	=31
1GG	1d	2D/	2dd\
.	.	2G/	2dd\
0r	0r	4.E-X/	4.cc\
.	.	8E-/	8cc\
.	.	4D/	4dd\
.	.	2d\	2dd\
=32-	=32-	=32-	=32-
.	.	.	.
.	.	4A/	4cc\
.	.	4B-\	4b-/
.	.	4c\	4g/
2r	2r	1F	1a
2D/	2a\	.	.
=33	=33	=33	=33
4.BB-/	4.g\	0r	0r
8BB-/	8g\	.	.
4AA/	4a\	.	.
2FF/	2a\	.	.
4EE/	4g\	.	.
4FF/	4f\	.	.
4GG/	4d\	.	.
=34-	=34-	=34-	=34-
1CC	1e	2r	2r
.	.	2C/	2g/
1r	1r	4.F/	4.a/
.	.	8F/	8a/
.	.	4D/	4g/
.	.	[<4G/	[<4b-/
=35	=35	=35	=35
00r	00r	4G/]	4b-/]
.	.	4F/	4a/
.	.	4E-X/	4b-/
.	.	4E-/	4cc\
.	.	2D/	2.dd\
.	.	2G/	.
.	.	.	4dd\
=36-	=36-	=36-	=36-
.	.	4C/	4cc\
.	.	4.F/	4.cc\
.	.	8F/	8cc\
.	.	4D/	4dd\
.	.	2.E-X/	4.b-/
.	.	.	8a/
.	.	.	8b-/
.	.	.	8g/
.	.	4C/	[<4cc\
=37	=37	=37	=37
1r	1r	1G	4cc]
!	!	!	!LO:N:acc=#
.	.	.	8bn/
.	.	.	8a/
.	.	.	2b/
2r	2r	1C	1cc
2C/	2g\	.	.
=38-	=38-	=38-	=38-
4FF/	4a\	0r	0r
4.BB-/	4.f\	.	.
8BB-/	8f\	.	.
4GG/	4g\	.	.
2.C/	4.e\	.	.
.	8d\	.	.
.	8e\	.	.
.	8f\	.	.
!	!LO:N:vis=8	!	!
4GG/	4g\	.	.
=39	=39	=39	=39
1D	4g\	1r	1r
.	8f#X\	.	.
.	8e\	.	.
.	2f#\	.	.
2.GG/	2.g\	2r	2r
.	.	2D/	2dd\
4GG/	4g\	.	.
=40-	=40-	=40-	=40-
4CC/	4g\	4C/	4ee\
4.FF/	4.c/	4.C/	4.ff\
8FF/	8A/	8C/	8ff\
4DD/	4d\	4F/	4ff\
2.GG/	2d\	4r	2.dd\
.	.	2D/	.
.	2g\	.	.
4CC/	.	4C/	4ee-X\
=41	=41	=41	=41
1GG	1g	1D	1ee-y
=42-	=42-	=42-	=42-
*M3/2	*M3/2	*M3/2	*M3/2
!	!	!	!LO:SIC:v:t=błędna wysokość custos
0.CC	0.e	0.E	0.cc
*custos:GG	*custos:d	*custos:C	*custos:gg
!!LO:PB:g=original
=43-	=43-	=43-	=43-
00.r	00.r	1C	1eeny
.	.	1c	1ee
.	.	1A	1ff#X
=44	=44	=44	=44
.	.	1.G	1.gg
.	.	2A/	4ff\
.	.	.	4ee\
.	.	1B-	2dd\
.	.	.	2ee\
=45	=45	=45	=45
0.r	0.r	1F	1ff
.	.	1c	1cc
.	.	1C	1ee-X
=46-	=46-	=46-	=46-
1GG	1d	0.G	0dd
1G	1d	.	.
1E	1e	.	1r
=47-	=47-	=47-	=47-
1.D	1.f	00.r	00.r
2E\	4e\	.	.
.	4d\	.	.
1F	2c/	.	.
.	2d\	.	.
=48-	=48-	=48-	=48-
1C	1e-X	.	.
1G	1d	.	.
1GG	1g	.	.
=49	=49	=49	=49
1D	1f#X	1d	1a
1r	1r	1B-	1b-
1r	1r	1A	1cc
=50-	=50-	=50-	=50-
1GG	1d	0G	1dd
1C	1e	.	1r
1AA	1f#X	1r	1r
=51-	=51-	=51-	=51-
1GG	1g	1D	1dd
1r	1r	1B-	1dd
1r	1r	1G	1ee
=52-	=52-	=52-	=52-
1FF	1c	0F	0ff
1F	1c	.	.
1D	1d	1r	1r
=53	=53	=53	=53
0C	0e	1C	1ee
.	.	1c	1ee
1r	1r	1A	1ff#X
=54-	=54-	=54-	=54-
1GG	1d	0G	0gg
1G	1d	.	.
1E-X	1c	1G	1gg
=55-	=55-	=55-	=55-
1.D	0f	1.d	0ffny
2Eny\	.	2c\	.
1F	1c	2A/	1ff
.	.	2B-\	.
=56-	=56-	=56-	=56-
1.C	1.e-X	1.c	0ee-X
2D/	2d\	2B-\	.
1E-X	2B-/	2G/	1ee-
.	2c/	2A/	.
=57	=57	=57	=57
1.BB-	1.d	1.B-	0dd
2C/	2c/	2A/	.
1D	2A/	2F/	1dd
.	2B-/	2G/	.
=58-	=58-	=58-	=58-
*	*col	*	*
1.AA	0c	1.A	0cc
2BB-/	.	2G/	.
1C	1c	2E/	1g
.	.	2F/	.
=59-	=59-	=59-	=59-
1GG	1B-	1G	1dd
0FF	0d	0A	0dd
*	*Xcol	*	*
=60-	=60-	=60-	=60-
*M2/1	*M2/1	*M2/1	*M2/1
*met(C|)	*met(C|)	*met(C|)	*met(C|)
1GG	1d	1G	2dd\
.	.	.	[y2gg\
=61	=61	=61	=61
!	!	!	!LO:N:xstem:cue
1.CC	1.e-X	1.G	4gg\]
.	.	.	4ff\
.	.	.	4ee-X\
.	.	.	4dd\
.	.	.	2ee-X\
2GG/	2B-/	2D/	2dd\
=62-	=62-	=62-	=62-
0DD	0d	0D	0dd
=63-	=63-	=63-	=63-
0GGl	0dl	0Dl	0ddl
==	==	==	==
*-	*-	*-	*-
!!!system-decoration: *
!!!RDF**kern: > = above
!!!RDF**kern: < = below
!!!RDF**kern: l = terminal long
!!!ENC: Filip Voros
!!!END: 2021-12-09
!!!ENC: Andrzej Kubiczek
!!!END: 2021-12-18
